X:1
T:Try A Little Tenderness
T:Try a little tenderness
T:Harry Woods, Jimmy Campbell and Reg Connelly
C:Harry Woods, Jimmy Campbell, Reg Connelly
Z:All Rights Reserved
L:1/8
M:4/4
K:C
V:1 treble 
%%MIDI program 4
V:1
"C" z EDE"Am" D C3 |"Dm7" DEFG"G7" A B3 |"C" c d2 c"Gm" G2 AG |"A7" E8 |"D7" z EDE D C3 | %5
w: She may be wea- ry|Wo- men do get wea- ry|wear- ing the same shab- by|dress|And when sh's wea- ry|
"Dm" DEFG"G7" A2 B,2 |"C" G8 |"Dm" z8 |"C" z EDE"Am" D C3 |"Dm7" DEFG"G7" A B3 | %10
w: try a lit- tle ten- der-|ness||You know she's wait- ing|just an- tic- i- pat- ing|
"C" c d2 B"Gm" G2 AG |"A7" E8 |"D7" z EDE D C3 |"Dm7" DEFG"G7" A2 B,2 |"C" C8- | C6"C7" z C | %16
w: things she may nev- er pos-|sess|While she's with out them|try a lit- tle ten- der-|ness|_ It's|
"F" A2 A4 ^GA |"E7" B2 B4 z B |"Am" c2 c2 c2 c2 |"A7" E6 DE |"Dm" F4- FFEF |"A7" A2 A4 DE | %22
w: not just sen- ti-|men- tal she|has her grief and|care, and a|word _ that's soft and|gen- tle makes it|
"Dm7" FG A4 c2 |"G7" D8 |"C" z EDE"Am" D C3 |"Dm7" DEFG"G7" A B3 |"C" c d2 c"Gm" G2 AG |"A7" E8 | %28
w: eas- i- er to|bear|You won't re- gret it|wo- men don't for- get it|Love is their whole hap- pi-|ness|
"D7" z EDE D C3 |"Dm" DEFG"G7" A2 B,2 |"C" C8- |"Fm""C" C6 z2 |] %32
w: It's all so eas- y|try a lit- tle ten- der-|ness|_|

